public/avatar/item2/15.svg

<svg xmlns:xlink="http://www.w3.org/1999/xlink" height="99.2" width="82.2" xmlns="http://www.w3.org/2000/svg"><use height="11.2" transform="translate(31.75 69.6)" width="11.55" xlink:href="#a"/><defs><g id="a"><path d="M5.8 5.7Q4.55-.5 8.35 1.5q3.8 2.05-2.55 4.2Zm0 0q-6.45 2-4.2-2.55 2.3-4.5 4.2 2.55Z" fill="none" stroke="#000" stroke-linecap="round" stroke-linejoin="round" stroke-width="2"/><path d="M5.8 5.65q2 6.8 4.2 2.55 2.15-4.25-4.2-2.55Z" fill="none" stroke="#000" stroke-linecap="round" stroke-linejoin="round" stroke-width="2"/><path d="M5.8 5.65Q-.6 8.2 3.25 9.85q3.9 1.65 2.55-4.2Z" fill="none" stroke="#000" stroke-linecap="round" stroke-linejoin="round" stroke-width="2"/><path d="M10.15 25.1q1.6 1.7-3.6 3.45L6.3 27l.2-.25.3-.35.2-.15.15-1.15q.4-.5 1.35-.35l1.65.35" fill="#549e16" fill-rule="evenodd" transform="translate(-.75 -22.85)"/><path d="m10.15 25.1-1.65-.35q-.95-.15-1.35.35L7 26.25l-.2.15-.3.35-.2.25q-.45-4.35 2.8-2.65.7.35 1.05.75" fill="#74dc1f" fill-rule="evenodd" transform="translate(-.75 -22.85)"/><path d="m5.3 25.25 1.25 3.3q-3.15.95-4.2.4h.25q-.2-1.05 0-1.6.15-.6.65-1.3l.55-.7 1.45-.1h.05" fill="#549e16" fill-rule="evenodd" transform="translate(-.75 -22.85)"/><path d="M5.3 25.25h-.05l-1.45.1-.55.7q-.5.7-.65 1.3-.2.55 0 1.6h-.25q-1.15-.6 0-2.95 1.55-3.05 2.95-.75" fill="#74dc1f" fill-rule="evenodd" transform="translate(-.75 -22.85)"/><path d="M6.55 28.5q6.35-1.7 4.2 2.55-2.2 4.25-4.2-2.55" fill="#549e16" fill-rule="evenodd" transform="translate(-.75 -22.85)"/><path d="m4.4 29.5 2.15-1Q7.9 34.35 4 32.7q-1-.45-1.3-.95l.9-.35q1.2-.45 1.5-1.6l-.7-.3" fill="#549e16" fill-rule="evenodd" transform="translate(-.75 -22.85)"/><path d="m2.7 31.75-.1-.5q.5-1.15 1.8-1.75l.7.3q-.3 1.15-1.5 1.6l-.9.35" fill="#74dc1f" fill-rule="evenodd" transform="translate(-.75 -22.85)"/></g></defs></svg>

<?xml version="1.0" encoding="UTF-8" standalone="no"?>
<svg xmlns:xlink="http://www.w3.org/1999/xlink" height="99.2px" width="82.2px" xmlns="http://www.w3.org/2000/svg">
  <g transform="matrix(1.0, 0.0, 0.0, 1.0, 31.0, 46.75)">
    <use height="11.2" transform="matrix(1.0, 0.0, 0.0, 1.0, 0.75, 22.85)" width="11.55" xlink:href="#shape0"/>
  </g>
  <defs>
    <g id="shape0" transform="matrix(1.0, 0.0, 0.0, 1.0, -0.75, -22.85)">
      <path d="M6.55 28.55 Q5.3 22.35 9.1 24.35 12.9 26.4 6.55 28.55 Z" fill="none" stroke="#000000" stroke-linecap="round" stroke-linejoin="round" stroke-width="2.0"/>
      <path d="M6.55 28.55 Q0.1 30.55 2.35 26.0 4.65 21.5 6.55 28.55 Z" fill="none" stroke="#000000" stroke-linecap="round" stroke-linejoin="round" stroke-width="2.0"/>
      <path d="M6.55 28.5 Q8.55 35.3 10.75 31.05 12.9 26.8 6.55 28.5 Z" fill="none" stroke="#000000" stroke-linecap="round" stroke-linejoin="round" stroke-width="2.0"/>
      <path d="M6.55 28.5 Q0.15 31.05 4.0 32.7 7.9 34.35 6.55 28.5 Z" fill="none" stroke="#000000" stroke-linecap="round" stroke-linejoin="round" stroke-width="2.0"/>
      <path d="M10.15 25.1 Q11.75 26.8 6.55 28.55 L6.3 27.0 6.5 26.75 6.8 26.4 7.0 26.25 7.15 25.1 Q7.55 24.6 8.5 24.75 L10.15 25.1" fill="#549e16" fill-rule="evenodd" stroke="none"/>
      <path d="M10.15 25.1 L8.5 24.75 Q7.55 24.6 7.15 25.1 L7.0 26.25 6.8 26.4 6.5 26.75 6.3 27.0 Q5.85 22.65 9.1 24.35 9.8 24.7 10.15 25.1" fill="#74dc1f" fill-rule="evenodd" stroke="none"/>
      <path d="M5.3 25.25 L6.55 28.55 Q3.4 29.5 2.35 28.95 L2.6 28.95 Q2.4 27.9 2.6 27.35 2.75 26.75 3.25 26.05 L3.8 25.35 5.25 25.25 5.3 25.25" fill="#549e16" fill-rule="evenodd" stroke="none"/>
      <path d="M5.3 25.25 L5.25 25.25 3.8 25.35 3.25 26.05 Q2.75 26.75 2.6 27.35 2.4 27.9 2.6 28.95 L2.35 28.95 Q1.2 28.35 2.35 26.0 3.9 22.95 5.3 25.25" fill="#74dc1f" fill-rule="evenodd" stroke="none"/>
      <path d="M6.55 28.5 Q12.9 26.8 10.75 31.05 8.55 35.3 6.55 28.5" fill="#549e16" fill-rule="evenodd" stroke="none"/>
      <path d="M4.4 29.5 L6.55 28.5 Q7.9 34.35 4.0 32.7 3.0 32.25 2.7 31.75 L3.6 31.4 Q4.8 30.95 5.1 29.8 L4.4 29.5" fill="#549e16" fill-rule="evenodd" stroke="none"/>
      <path d="M2.7 31.75 L2.6 31.25 Q3.1 30.1 4.4 29.5 L5.1 29.8 Q4.8 30.95 3.6 31.4 L2.7 31.75" fill="#74dc1f" fill-rule="evenodd" stroke="none"/>
    </g>
  </defs>
</svg>
